public/icons/edinorog.svg

<svg width="89" height="91" viewBox="0 0 89 91" fill="none" xmlns="http://www.w3.org/2000/svg">
<ellipse cx="43.9824" cy="46.4759" rx="43.9824" ry="43.849" fill="#FF5C3E"/>
<path d="M14.1909 14.0387C11.4329 9.54241 8.68404 5.06227 5.93515 0.58392C5.98562 0.546181 6.03609 0.508442 6.08476 0.470703C6.49394 0.948729 6.91754 1.41597 7.3123 1.90658C10.2541 5.54568 13.1165 9.24949 16.1466 12.8131C19.2723 16.4882 22.5601 20.0284 25.7777 23.6262C27.984 26.0936 30.1957 28.5538 32.3949 31.0266C33.334 32.0833 33.2943 33.1957 32.3228 34.2614C31.198 35.4942 29.7036 35.868 28.1336 36.0225C26.2463 36.2076 25.0639 37.2481 24.7628 39.1261C24.6457 39.8593 24.5826 40.6033 24.5411 41.3455C24.4456 43.0456 23.8814 44.5964 23.1351 46.106C22.7133 46.9578 22.2879 47.8222 22.0031 48.7262C21.1433 51.4577 22.0644 53.9305 24.5537 55.7528C25.2027 56.2272 25.893 56.6495 26.5311 57.1401C28.3968 58.5742 28.5049 60.7631 26.7673 62.3589C25.0026 63.9799 22.8071 64.7328 20.5503 65.378C19.8022 65.5918 19.4579 65.4481 19.1244 64.7364C18.7117 63.8523 18.1096 63.0579 17.5995 62.2187C16.1845 59.8933 15.422 57.3755 16.1845 54.7194C16.563 53.3986 17.4246 52.1568 18.2826 51.0426C20.0329 48.7729 21.9184 46.5912 22.8233 43.8237C23.2361 42.5639 23.4127 41.2215 23.6308 39.906C23.8922 38.3228 24.314 36.8564 25.5091 35.6613C26.3022 34.8688 26.3671 33.8534 25.8173 32.8561C23.6867 28.9977 21.6048 25.1124 19.3822 21.3098C18.5963 19.9655 17.4589 18.8244 16.3016 17.685C16.3972 17.8971 16.4783 18.1163 16.5919 18.3194C19.3047 23.2147 22.0194 28.1099 24.734 33.0034C25.3198 34.0583 25.2784 34.4034 24.4546 35.2875C23.1892 36.6443 22.7007 38.3408 22.5799 40.1073C22.3366 43.6476 20.5989 46.4618 18.4863 49.1467C17.4589 50.4532 16.3233 51.7453 15.6203 53.2243C14.1584 56.3009 14.874 59.329 16.4134 62.2043C17.0443 63.3832 17.7779 64.5082 18.4341 65.6763C18.6197 66.0052 18.6954 66.3951 18.8378 66.8049C21.621 67.4285 24.4005 67.7609 27.0124 66.0573C27.1945 65.9387 27.4667 65.8884 27.6884 65.9063C30.6175 66.1489 33.2078 67.1068 35.1906 69.3981C35.7927 70.0936 36.4398 70.7729 37.1644 71.3317C38.6786 72.4981 40.6415 72.5142 42.0926 71.4791C43.5941 70.4062 43.8699 68.1635 42.5396 66.8857C42.6586 67.3188 42.7704 67.6315 42.828 67.955C43.1507 69.7665 41.55 71.2617 39.7601 70.8304C38.2315 70.4638 37.2239 69.1357 37.2708 67.5525C37.3104 66.1597 38.3036 65.0922 39.8809 64.8245C41.6185 64.5298 43.1561 65.1318 44.225 66.4095C45.22 67.5974 45.9176 69.0405 46.6873 70.4044C47.183 71.2832 47.5057 72.2608 48.0248 73.1234C49.9968 76.3941 53.2432 77.1256 56.4554 75.0248C58.4165 73.7416 60.5778 72.7263 62.1442 70.8951C62.2722 70.7459 62.4921 70.6686 62.676 70.5734C68.0206 67.7663 70.3999 61.5897 68.2837 55.9523C67.5249 53.9305 66.1351 52.3617 64.3578 51.2007C62.4633 49.9643 60.4895 48.8412 58.4995 47.7575C57.0718 46.9812 55.7902 46.1312 55.372 44.4239C55.3558 44.4365 55.4117 44.3718 55.4351 44.3826C58.7572 45.858 62.1208 47.2507 65.3834 48.8502C67.3843 49.8314 68.9525 51.3535 69.4121 53.6951C69.4914 54.0941 69.5239 54.502 69.6104 55.14C70.3855 54.2109 70.7442 53.2926 70.9677 52.3329C71.97 48.0576 71.2093 44.2191 67.9485 41.0993C65.9963 39.2321 63.5574 38.2365 60.9419 37.7208C58.3967 37.2194 55.8263 36.851 53.2703 36.3999C52.7151 36.3029 52.1689 36.1339 51.6335 35.9488C49.7138 35.2893 48.0537 34.371 48.0176 32.0096C48.5476 32.3331 49.1352 32.7464 49.7697 33.0681C52.2176 34.3027 54.8673 34.6891 57.5639 34.8724C59.1412 34.9802 60.7238 35.0593 62.2938 35.2444C64.2712 35.478 65.8323 36.4377 66.8777 38.1647C66.939 38.2653 67.0183 38.3552 67.0922 38.445C67.1067 38.463 67.1445 38.4612 67.4347 38.5438C67.1553 37.5123 67.0292 36.5545 66.647 35.7116C63.6746 29.1361 58.6329 25.1376 51.4443 24.1366C49.2632 23.8329 46.9883 24.1186 44.7622 24.2336C44.0718 24.2696 43.6122 24.1869 43.1507 23.6334C41.1084 21.1876 38.7146 19.1802 35.5637 18.3517C34.2839 18.0157 32.9158 17.9959 31.5855 17.8593C31.1619 17.8162 30.7978 17.9186 30.8789 18.4955C30.8951 18.6141 30.8032 18.7543 30.7383 18.8747C30.5671 19.1964 30.2462 19.5037 30.2264 19.8308C30.0461 22.7924 30.8897 25.4718 32.5895 27.8943C32.7409 28.1081 32.8852 28.3274 33.1249 28.6778C31.964 28.2915 30.9925 27.9248 30.2426 27.0892C26.56 22.9864 22.8611 18.8963 19.1623 14.8061C18.3439 13.9022 17.5076 13.0144 16.6784 12.1176C30.093 0.684557 54.359 -2.3058 72.3467 12.7844C90.9635 28.4011 93.4582 55.9594 78.0229 74.4677C62.3083 93.3173 34.776 95.6607 16.2908 80.5778C5.95137 72.1404 0.446365 61.1117 0.0245669 47.7827C-0.395429 34.4824 4.57962 23.2901 14.1909 14.0387Z" fill="white"/>
<path d="M69.8011 50.6855C66.9368 47.1597 62.8522 45.988 59.0596 44.2897C56.9705 43.3552 54.9101 42.3255 52.9436 41.1592C51.3988 40.2445 50.3208 38.8373 49.8828 37.0331C49.9459 36.9953 50.0072 36.9324 50.0378 36.945C52.8714 38.0718 55.8943 38.2982 58.8613 38.7924C61.2858 39.195 63.6453 39.7862 65.7237 41.2023C68.8223 43.3139 70.2535 46.5199 69.8011 50.6855Z" fill="white"/>
<path d="M44.5723 25.8734C50.18 23.3161 62.0498 28.3408 64.0291 33.9872C60.6402 33.6224 57.2316 33.3331 53.8482 32.8694C51.0813 32.4902 48.8191 31.0885 47.0472 28.9284C46.2198 27.9238 45.4087 26.9085 44.5723 25.8734Z" fill="white"/>
<path d="M64.908 66.9808C64.7944 66.1039 64.7476 65.2772 64.5745 64.4793C63.9598 61.6453 62.2961 59.336 60.7134 56.989C59.4318 55.0895 58.0637 53.2295 57.4526 50.9742C57.2706 50.3021 57.2273 49.5922 57.1191 48.9003C57.1894 48.8482 57.2597 48.7943 57.33 48.7422C58.9523 49.6587 60.5945 50.5411 62.1915 51.5007C64.2681 52.7479 66.1427 54.2341 66.9629 56.6278C68.2157 60.2885 67.5632 63.6562 65.218 66.7149C65.1531 66.8011 65.0504 66.8604 64.908 66.9808Z" fill="white"/>
<path d="M36.4765 69.3199C34.6 67.0807 32.4965 65.6448 29.5547 65.1416C30.1694 64.6995 30.5966 64.3635 31.0508 64.0688C33.8087 62.2825 36.7757 61.1269 40.1177 61.1701C43.8435 61.2168 46.5456 62.9779 47.6541 66.1156C47.9498 66.9513 48.1066 67.8391 48.267 68.7142C48.4977 69.9668 48.6726 71.2302 48.797 72.5384C48.3806 71.6093 47.9426 70.6892 47.5496 69.7512C46.7114 67.7456 45.6894 65.8802 43.766 64.6852C42.7296 64.0418 41.612 63.6968 40.3718 63.7399C37.4156 63.8441 35.7555 66.0707 36.4765 69.3199Z" fill="white"/>
<path d="M30.8438 19.5606C33.8793 19.5049 36.5074 21.6381 37.387 24.8261C37.5997 25.5989 37.807 26.3752 37.9819 27.1569C38.3478 28.7959 39.1932 30.1796 40.2333 31.4664C40.3739 31.6407 40.4964 31.8312 40.6515 32.0468C35.963 32.4655 29.9569 26.0032 30.8438 19.5606Z" fill="white"/>
<path d="M37.6191 57.8209C39.3298 56.7031 41.0314 56.1353 42.8123 55.792C44.2165 55.5207 45.6387 55.3374 47.0465 55.0822C47.6305 54.9761 48.2146 54.8252 48.7734 54.6257C52.5461 53.2923 54.1684 50.0935 53.1842 45.9619C53.1446 45.793 53.0995 45.6259 53.04 45.3887C54.565 46.794 55.0426 49.9066 54.0855 52.072C52.8219 54.933 50.4047 56.2072 47.4755 56.6061C45.4098 56.8865 43.3098 56.9098 41.2351 57.1327C40.0941 57.2549 38.9711 57.5568 37.6191 57.8209Z" fill="white"/>
<path d="M35.2577 42.4637C33.63 42.4709 32.9108 41.6029 33.2209 40.0071C33.5075 38.5299 34.607 37.4714 35.9661 37.3636C37.4154 37.2486 38.7529 38.1274 39.2342 39.4806C39.51 40.2569 39.3676 40.9937 38.6754 41.3531C37.6191 41.9013 36.4618 42.2571 35.3479 42.6956C35.3172 42.6183 35.2866 42.541 35.2577 42.4637ZM36.0437 40.2461C36.5736 40.1635 37.3127 40.1922 37.437 39.3278C37.5109 38.8121 36.826 38.2226 36.2257 38.2693C35.5498 38.3214 35.1334 38.7132 35.0721 39.3997C35.0198 40.0035 35.3497 40.2659 36.0437 40.2461Z" fill="white"/>
</svg>

<svg width="89" height="91" fill="none" xmlns="http://www.w3.org/2000/svg"><ellipse cx="43.982" cy="46.476" rx="43.982" ry="43.849" fill="#FF5C3E"/><path d="M14.19 14.039A51349.08 51349.08 0 0 0 5.936.584l.15-.113c.409.478.833.945 1.227 1.436 2.942 3.639 5.804 7.342 8.835 10.906 3.125 3.675 6.413 7.215 9.63 10.813 2.207 2.468 4.419 4.928 6.618 7.4.939 1.057.9 2.17-.072 3.235-1.125 1.233-2.62 1.607-4.19 1.761-1.887.186-3.07 1.226-3.37 3.104a21.8 21.8 0 0 0-.222 2.22c-.095 1.7-.66 3.25-1.406 4.76-.422.852-.847 1.716-1.132 2.62-.86 2.732.061 5.205 2.55 7.027.65.474 1.34.897 1.978 1.387 1.866 1.434 1.974 3.623.236 5.219-1.764 1.62-3.96 2.374-6.217 3.019-.748.214-1.092.07-1.426-.642-.412-.884-1.014-1.678-1.524-2.517-1.416-2.326-2.178-4.843-1.416-7.5.379-1.32 1.24-2.562 2.099-3.676 1.75-2.27 3.635-4.452 4.54-7.22.413-1.26.59-2.602.808-3.917.261-1.583.683-3.05 1.878-4.245.793-.792.858-1.808.308-2.805-2.13-3.858-4.212-7.744-6.435-11.546-.786-1.345-1.923-2.486-3.08-3.625.095.212.176.431.29.634 2.713 4.896 5.427 9.79 8.142 14.684.586 1.055.544 1.4-.28 2.285-1.265 1.356-1.753 3.053-1.874 4.82-.243 3.54-1.981 6.354-4.094 9.039-1.027 1.306-2.163 2.598-2.866 4.077-1.462 3.077-.746 6.105.793 8.98.631 1.18 1.365 2.304 2.021 3.472.186.33.261.72.404 1.129 2.783.623 5.563.956 8.174-.748.183-.118.455-.169.676-.15 2.93.242 5.52 1.2 7.503 3.491.602.696 1.249 1.375 1.973 1.934 1.515 1.166 3.477 1.182 4.929.147 1.501-1.073 1.777-3.316.447-4.593.119.433.23.746.288 1.069a2.49 2.49 0 0 1-3.068 2.875c-1.529-.366-2.536-1.694-2.49-3.278.04-1.392 1.034-2.46 2.61-2.728 1.738-.294 3.276.308 4.345 1.585.995 1.188 1.693 2.631 2.462 3.995.496.88.819 1.857 1.338 2.72 1.972 3.27 5.218 4.002 8.43 1.9 1.962-1.282 4.123-2.298 5.69-4.129.127-.15.347-.226.531-.322 5.345-2.807 7.724-8.983 5.608-14.62-.76-2.023-2.149-3.591-3.926-4.752-1.895-1.237-3.869-2.36-5.859-3.444-1.427-.776-2.709-1.626-3.127-3.333-.016.013.04-.052.063-.041 3.322 1.475 6.686 2.868 9.948 4.467 2.001.981 3.57 2.503 4.03 4.845.078.4.11.807.197 1.445.775-.93 1.134-1.847 1.358-2.807 1.002-4.275.241-8.114-3.02-11.234-1.952-1.867-4.39-2.862-7.006-3.378-2.545-.502-5.116-.87-7.672-1.321-.555-.097-1.101-.266-1.637-.451-1.92-.66-3.58-1.578-3.615-3.94.53.324 1.117.737 1.752 1.06 2.448 1.234 5.097 1.62 7.794 1.803 1.577.108 3.16.187 4.73.372 1.977.234 3.538 1.194 4.584 2.92.061.101.14.191.214.281.015.018.052.016.343.099-.28-1.032-.406-1.99-.788-2.832-2.972-6.576-8.014-10.574-15.203-11.575-2.18-.304-4.456-.018-6.682.097-.69.036-1.15-.047-1.611-.6-2.043-2.446-4.436-4.454-7.587-5.282-1.28-.336-2.648-.356-3.979-.493-.423-.043-.787.06-.706.636.016.12-.076.26-.14.38-.172.321-.493.629-.513.956-.18 2.961.664 5.64 2.364 8.063.15.214.295.433.535.784-1.161-.387-2.133-.753-2.882-1.589-3.683-4.103-7.382-8.193-11.08-12.283-.82-.904-1.655-1.792-2.485-2.688C30.093.685 54.36-2.306 72.347 12.784c18.617 15.617 21.111 43.175 5.676 61.684-15.715 18.85-43.247 21.193-61.732 6.11C5.95 72.14.446 61.112.025 47.783c-.42-13.3 4.555-24.493 14.166-33.744Z" fill="#fff"/><path d="M69.801 50.685c-2.864-3.525-6.949-4.697-10.741-6.395-2.09-.935-4.15-1.965-6.116-3.13-1.545-.915-2.623-2.323-3.061-4.127.063-.038.124-.1.155-.088 2.833 1.127 5.856 1.353 8.823 1.847 2.425.403 4.784.994 6.863 2.41 3.098 2.112 4.53 5.318 4.077 9.483ZM44.572 25.873c5.608-2.557 17.478 2.468 19.457 8.114-3.389-.365-6.797-.654-10.18-1.118-2.768-.379-5.03-1.78-6.802-3.94-.827-1.005-1.638-2.02-2.475-3.056ZM64.908 66.98c-.114-.876-.16-1.703-.334-2.5-.614-2.835-2.278-5.144-3.86-7.491-1.282-1.9-2.65-3.76-3.261-6.015-.182-.672-.226-1.382-.334-2.074l.211-.158c1.622.917 3.264 1.8 4.861 2.759 2.077 1.247 3.952 2.733 4.772 5.127 1.253 3.66.6 7.028-1.745 10.087-.065.086-.168.145-.31.266ZM36.477 69.32c-1.877-2.24-3.98-3.675-6.922-4.178.614-.442 1.042-.778 1.496-1.073 2.758-1.787 5.725-2.942 9.067-2.899 3.725.047 6.428 1.808 7.536 4.946.296.835.453 1.723.613 2.598.23 1.253.406 2.516.53 3.824-.416-.929-.854-1.849-1.247-2.787-.839-2.005-1.86-3.87-3.784-5.066-1.036-.643-2.154-.988-3.394-.945-2.956.104-4.617 2.33-3.895 5.58ZM30.844 19.56c3.035-.055 5.663 2.078 6.543 5.266.213.773.42 1.55.595 2.33.366 1.64 1.211 3.024 2.251 4.31.14.175.263.365.419.58-4.689.42-10.695-6.043-9.808-12.485ZM37.62 57.82c1.71-1.117 3.411-1.685 5.192-2.028 1.405-.271 2.827-.455 4.235-.71a11.012 11.012 0 0 0 1.726-.456c3.773-1.334 5.395-4.532 4.411-8.664-.04-.169-.084-.336-.144-.573 1.525 1.405 2.003 4.518 1.046 6.683-1.264 2.861-3.681 4.135-6.61 4.534-2.066.28-4.166.304-6.24.527-1.142.122-2.265.424-3.617.688ZM35.258 42.464c-1.628.007-2.347-.861-2.037-2.457.287-1.477 1.386-2.536 2.745-2.643a3.204 3.204 0 0 1 3.268 2.117c.276.776.134 1.513-.559 1.872-1.056.548-2.213.904-3.327 1.343l-.09-.232Zm.786-2.218c.53-.083 1.269-.054 1.393-.918.074-.516-.611-1.105-1.211-1.059-.676.052-1.093.444-1.154 1.13-.052.605.278.867.972.847Z" fill="#fff"/></svg>
